themes/vice/icons/system/system-log-out.svg

<svg xmlns="http://www.w3.org/2000/svg" width="16" height="16">
    <path style="fill:#dfdfdf" d="m12 5 4 3-4 3V9H8V7h4z"/>
    <path style="fill:#dfdfdf" d="M8 2a6 6 0 0 0-6 6 6 6 0 0 0 6 6 6 6 0 0 0 4.24-1.76l-1.414-1.414A4 4 0 0 1 8 12a4 4 0 0 1-4-4 4 4 0 0 1 4-4 4 4 0 0 1 2.826 1.174L12.24 3.76A6 6 0 0 0 8 2z"/>
</svg>

<svg xmlns="http://www.w3.org/2000/svg" width="16" height="16" version="1.1">
 <path style="fill:#dfdfdf" d="M 12,5 16,8 12,11 V 9 H 8 V 7 H 12 Z"/>
 <path style="fill:#dfdfdf" d="M 8,2 A 6,6 0 0 0 2,8 6,6 0 0 0 8,14 6,6 0 0 0 12.24,12.24 L 10.826,10.826 A 4,4 0 0 1 8,12 4,4 0 0 1 4,8 4,4 0 0 1 8,4 4,4 0 0 1 10.826,5.1738 L 12.24,3.7598 A 6,6 0 0 0 8,2 Z"/>
</svg>
